X: 18
I: linebreak $
T: Prexonera
N: 
N: Drone: F/C
K: Bb major
M: 6/4
L: 1/8
P: A
"^Bassadanza"B6 B6 | c6 c6 | 
M: 3/4
d4e2 | 
M: 6/4
d2c4 B6 | f6 f6 :: 
P: B
g4g2 f2e4 | d6 d4Bc | d6 z6 | g4g2 f2e4 | 
d6 d4Bc | d6 z6 | B4F2 G2A4 | B6 B6 :| 
M: 4/4
P: C
"^Quadernaria"BBcc d2d2 | ffee d2d2 | BBcc d2d2 | ffee d2d2 | d2z2 d2z2 | B2c2 d2d2 | 
d2z2 d2z2 | 
M: 2/4
B2 c2 || 
M: 6/8
P: D
"^Saltarello"d2g fe2 | d2g fe2 | d2g fe2 || 
M: 6/4
P: E
"^Bassadanza"B6 B6 | c6 c6 | 
M: 3/4
d4e2 | 
M: 6/4
d2c4 B6 | f6 f6 |] 

